assets/svg/26BD.svg

<svg xmlns="http://www.w3.org/2000/svg" viewBox="0 0 64 64" enable-background="new 0 0 64 64"><path fill="#e6e7e8" d="m57.975 13.79c9.937 14.468 6.266 34.25-8.201 44.18-14.47 9.938-34.25 6.266-44.19-8.202-9.939-14.468-6.265-34.25 8.204-44.19 14.462-9.936 34.25-6.263 44.18 8.204"/><path fill="#b7b7b7" d="m27.559.289c-16.14 2.145-28.26 16.314-27.521 32.892.778 17.534 15.619 31.12 33.15 30.343 11.43-.506 21.18-6.99 26.364-16.302-45.761 2.753-56.02-27.559-31.996-46.933"/><g fill="#404041"><path d="m35.16 42.585l-13.16 1.465-7.85-10.661 5.313-12.13 13.162-1.467 7.85 10.666z"/><path d="m61.799 22.75c-.923-3.197-2.341-6.308-4.327-9.201-2.874-4.184-6.586-7.435-10.743-9.744l-4.18 9.551 7.851 10.665 11.399-1.271"/><path d="m17.923 10.996l4.086-9.334c-6.319 1.933-11.761 5.767-15.714 10.819l11.517-1.283c.039-.069.07-.135.111-.202"/><path d="m52.938 42.944l-5.31 12.13 2.062 2.801c.024-.02.055-.031.082-.052 5.843-4.01 9.89-9.643 12.02-15.868l-8.859.987"/><path d="m6.303 39.625l-5.236.584c1.708 6.488 5.412 12.11 10.378 16.264l2.708-6.181-7.85-10.667"/></g></svg>

<?xml version="1.0" encoding="UTF-8" standalone="no"?>
<!-- Generator: Adobe Illustrator 16.0.0, SVG Export Plug-In . SVG Version: 6.00 Build 0)  -->

<svg
   xmlns:dc="http://purl.org/dc/elements/1.1/"
   xmlns:cc="http://creativecommons.org/ns#"
   xmlns:rdf="http://www.w3.org/1999/02/22-rdf-syntax-ns#"
   xmlns:svg="http://www.w3.org/2000/svg"
   xmlns="http://www.w3.org/2000/svg"
   xmlns:sodipodi="http://sodipodi.sourceforge.net/DTD/sodipodi-0.dtd"
   xmlns:inkscape="http://www.inkscape.org/namespaces/inkscape"
   version="1.1"
   id="Layer_1"
   x="0px"
   y="0px"
   width="64px"
   height="64px"
   viewBox="0 0 64 64"
   enable-background="new 0 0 64 64"
   xml:space="preserve"
   inkscape:version="0.48.5 r10040"
   sodipodi:docname="26BD.svg"
   inkscape:export-filename="D:\TESTINGEMOJI\SVGTEST\26BD.png"
   inkscape:export-xdpi="90"
   inkscape:export-ydpi="90"><metadata
   id="metadata3497"><rdf:RDF><cc:Work
       rdf:about=""><dc:format>image/svg+xml</dc:format><dc:type
         rdf:resource="http://purl.org/dc/dcmitype/StillImage" /><dc:title></dc:title></cc:Work></rdf:RDF></metadata><defs
   id="defs3495" /><sodipodi:namedview
   pagecolor="#ffffff"
   bordercolor="#666666"
   borderopacity="1"
   objecttolerance="10"
   gridtolerance="10"
   guidetolerance="10"
   inkscape:pageopacity="0"
   inkscape:pageshadow="2"
   inkscape:window-width="640"
   inkscape:window-height="480"
   id="namedview3493"
   showgrid="false"
   inkscape:zoom="3.6875"
   inkscape:cx="32"
   inkscape:cy="32"
   inkscape:window-x="713"
   inkscape:window-y="334"
   inkscape:window-maximized="0"
   inkscape:current-layer="Layer_1" />
<g
   id="g3477">
	<path
   fill="#E6E7E8"
   d="M57.975,13.79c9.937,14.468,6.266,34.249-8.201,44.184c-14.47,9.938-34.248,6.266-44.186-8.202   c-9.939-14.468-6.265-34.25,8.204-44.186C28.254-4.35,48.038-0.677,57.975,13.79z"
   id="path3479" />
	<path
   fill="#B7B7B7"
   d="M27.559,0.289C11.416,2.434-0.698,16.603,0.038,33.181c0.778,17.534,15.619,31.117,33.153,30.343   c11.43-0.506,21.175-6.99,26.364-16.302C13.794,49.975,3.531,19.663,27.559,0.289z"
   id="path3481" />
	<polygon
   fill="#404041"
   points="35.163,42.585 22.003,44.053 14.152,33.389 19.463,21.257 32.625,19.79 40.475,30.456  "
   id="polygon3483" />
	<path
   fill="#404041"
   d="M61.799,22.75c-0.923-3.197-2.341-6.308-4.327-9.201c-2.874-4.184-6.586-7.435-10.743-9.744l-4.18,9.551   L50.4,24.021L61.799,22.75z"
   id="path3485" />
	<path
   fill="#404041"
   d="M17.923,10.996l4.086-9.334C15.69,3.595,10.248,7.429,6.295,12.481l11.517-1.283   C17.851,11.129,17.882,11.063,17.923,10.996z"
   id="path3487" />
	<path
   fill="#404041"
   d="M52.938,42.944l-5.31,12.132l2.062,2.801c0.024-0.02,0.055-0.031,0.082-0.052   c5.843-4.013,9.89-9.643,12.025-15.868L52.938,42.944z"
   id="path3489" />
	<path
   fill="#404041"
   d="M6.303,39.625l-5.236,0.584c1.708,6.488,5.412,12.114,10.378,16.264l2.708-6.181L6.303,39.625z"
   id="path3491" />
</g>
</svg>
